X: 1
T: I Wish I Never Saw You
M: 4/4
L: 1/8
R: reel
K: Gmaj
|:edBA G2 GA | BdAc BE E2 | G2 GE DEGA | AGdB A2 Bd |
edBA G2 GA | BdAc BE E2 | G2 GE DEGA | dBAc BG G2 :|
|:dedc BGBd | e2 af gfef | dedc BGBd | egfa g2 Bc | 
 d2 dc BGBd | eaaf gfef | d3 f e3 g | fgaf g4 :|
